client/public/achievements/ten_win.svg

<svg xmlns="http://www.w3.org/2000/svg" width="27" height="60" fill="none"><path fill="#000" d="M4 2V1h19v1H4ZM3 3h1V2H3v1Zm0 23h1V8H3v18Zm1 1h1V8H4v19Zm2 2h1V8H6v21Zm2 1h1v1H8v-1Zm10 1h1V8h-1v23ZM7 30h1V8H7v22Zm12 0h1V8h-1v22Z"/><path fill="#fff" d="M18 8H9v23h1v1h1v1h1v1h3v-1h1v-1h1v-1h1V8Z"/><path fill="#000" d="M20 29h1V8h-1v21ZM5 28h1V8H5v20Zm16 0h1V8h-1v20Zm1-1h1V8h-1v19Zm1-1h1V8h-1v18Zm2-18h1V4h-1v4Zm-1-4h1V3h-1v1Zm-1-1h1V2h-1v1Z"/><path fill="#000" d="M1 8h25V7H1v1Z"/><path fill="#000" d="M1 8h1V4H1v4Zm1-4h1V3H2v1Zm15 28h1v-1h-1v1Zm-1 1h1v-1h-1v1Zm-1 1h1v-1h-1v1Zm-1 1h1v-1h-1v1Zm-1 0h1v-1h-1v1ZM4 45h5v-1H4v1Zm14 0h5v-1h-5v1ZM1 46h3v-1H1v1Zm22 0h3v-1h-3v1ZM9 44h1v-2H9v2Zm8 0h1v-2h-1v2Zm-7-2h1v-2h-1v2Zm6 0h1v-2h-1v2ZM7 52h1v-2H7v2Zm12 0h1v-2h-1v2ZM5 58h1v-2H5v2Zm16 0h1v-2h-1v2ZM6 56h1v-4H6v4Zm14 0h1v-4h-1v4Zm-9-16h1v-2h-1v2Zm4 0h1v-2h-1v2Zm-1-2h1v-1h-1v1Zm-2 0h1v-1h-1v1ZM1 47h1v-1H1v1Zm24 0h1v-1h-1v1ZM2 48h1v-1H2v1Zm22 0h1v-1h-1v1Zm-14 8h1v-1h-1v1Zm6 0h1v-1h-1v1Zm-7 1h1v-1H9v1Zm8 0h1v-1h-1v1Zm-4-3h1v-1h-1v1Zm-7 5h1v-1H6v1Zm14 0h1v-1h-1v1ZM3 49h2v-1H3v1Zm19 0h2v-1h-2v1Zm-11 6h2v-1h-2v1Zm3 0h2v-1h-2v1Zm-7 3h2v-1H7v1Zm11 0h2v-1h-2v1ZM5 50h2v-1H5v1Zm15 0h2v-1h-2v1Zm-7-13h1v-1h-1v1Zm0-1h1v-1h-1v1Zm-1-1h1v-1h-1v1Zm-1-1h1v-1h-1v1Zm-1-1h1v-1h-1v1Zm-1-1h1v-1H9v1Z"/><path fill="#929292" d="M23 2H4v1H3v1H2v3h23V4h-1V3h-1V2Z"/><path fill="#D9D9D9" d="M4 4h2v1H4V4Z"/><path fill="#D0CFCF" d="M8 3V2h2v1H8Z"/><path fill="#D9D9D9" d="M7 4V3H6v1h1ZM4 6V5H3v1h1Z"/><path fill="#FEBB38" d="M14 37h-1v1h-1v2h-1v2h-1v2H9v1H4v1H2v1h1v1h2v1h2v1h1v2H7v4H6v2h1v-1h2v-1h1v-1h1v-1h2v-1h1v1h2v1h1v1h1v1h2v1h1v-2h-1v-4h-1v-2h1v-1h2v-1h2v-1h1v-1h-2v-1h-5v-1h-1v-2h-1v-2h-1v-2h-1v-1Z"/><path fill="#FFE073" d="M12 44h-1v1h-1v4H9v4h1v-3h1v-1h1v-2h-1v-1h1v-2Z"/><path fill="#E2E2E2" d="M18 8H9v23h1v1h1v1h1v1h3v-1h1v-1h1v-1h1V8Z"/><path fill="#18AE9C" d="M12 18v-1h1v1h-1Zm0 4v-1h1v1h-1Zm0-1v-1h1v1h-1Zm0-1v-1h1v1h-1Zm0-1v-1h1v1h-1Zm0-2v-1h1v1h-1Zm0-1v-1h1v1h-1Zm-1 1v-1h1v1h-1Zm-1 1v-1h1v1h-1Z"/><path fill="#E2E2E2" d="M8 30h1V8H8v22Zm10 0h1V8h-1v22Z"/><path fill="#18AE9C" d="M14 21v-5h1v5h-1Zm1-5v-1h1v1h-1Zm0 6v-1h1v1h-1Zm1-1v-5h1v5h-1Z"/><path fill="#000" d="M4 2V1h19v1H4ZM3 3h1V2H3v1Zm0 23h1V8H3v18Zm1 1h1V8H4v19Zm2 2h1V8H6v21Zm2 1h1v1H8v-1Zm10 1h1V8h-1v23ZM7 30h1V8H7v22Zm12 0h1V8h-1v22Z"/><path fill="#fff" d="M18 8H9v23h1v1h1v1h1v1h3v-1h1v-1h1v-1h1V8Z"/><path fill="#000" d="M20 29h1V8h-1v21ZM5 28h1V8H5v20Zm16 0h1V8h-1v20Zm1-1h1V8h-1v19Zm1-1h1V8h-1v18Zm2-18h1V4h-1v4Zm-1-4h1V3h-1v1Zm-1-1h1V2h-1v1Z"/><path fill="#000" d="M1 8h25V7H1v1Z"/><path fill="#000" d="M1 8h1V4H1v4Zm1-4h1V3H2v1Zm15 28h1v-1h-1v1Zm-1 1h1v-1h-1v1Zm-1 1h1v-1h-1v1Zm-1 1h1v-1h-1v1Zm-1 0h1v-1h-1v1ZM4 45h5v-1H4v1Zm14 0h5v-1h-5v1ZM1 46h3v-1H1v1Zm22 0h3v-1h-3v1ZM9 44h1v-2H9v2Zm8 0h1v-2h-1v2Zm-7-2h1v-2h-1v2Zm6 0h1v-2h-1v2ZM7 52h1v-2H7v2Zm12 0h1v-2h-1v2ZM5 58h1v-2H5v2Zm16 0h1v-2h-1v2ZM6 56h1v-4H6v4Zm14 0h1v-4h-1v4Zm-9-16h1v-2h-1v2Zm4 0h1v-2h-1v2Zm-1-2h1v-1h-1v1Zm-2 0h1v-1h-1v1ZM1 47h1v-1H1v1Zm24 0h1v-1h-1v1ZM2 48h1v-1H2v1Zm22 0h1v-1h-1v1Zm-14 8h1v-1h-1v1Zm6 0h1v-1h-1v1Zm-7 1h1v-1H9v1Zm8 0h1v-1h-1v1Zm-4-3h1v-1h-1v1Zm-7 5h1v-1H6v1Zm14 0h1v-1h-1v1ZM3 49h2v-1H3v1Zm19 0h2v-1h-2v1Zm-11 6h2v-1h-2v1Zm3 0h2v-1h-2v1Zm-7 3h2v-1H7v1Zm11 0h2v-1h-2v1ZM5 50h2v-1H5v1Zm15 0h2v-1h-2v1Zm-7-13h1v-1h-1v1Zm0-1h1v-1h-1v1Zm-1-1h1v-1h-1v1Zm-1-1h1v-1h-1v1Zm-1-1h1v-1h-1v1Zm-1-1h1v-1H9v1Z"/><path fill="#929292" d="M23 2H4v1H3v1H2v3h23V4h-1V3h-1V2Z"/><path fill="#D9D9D9" d="M4 4h2v1H4V4Z"/><path fill="#D0CFCF" d="M8 3V2h2v1H8Z"/><path fill="#D9D9D9" d="M7 4V3H6v1h1ZM4 6V5H3v1h1Z"/><path fill="#FEBB38" d="M14 37h-1v1h-1v2h-1v2h-1v2H9v1H4v1H2v1h1v1h2v1h2v1h1v2H7v4H6v2h1v-1h2v-1h1v-1h1v-1h2v-1h1v1h2v1h1v1h1v1h2v1h1v-2h-1v-4h-1v-2h1v-1h2v-1h2v-1h1v-1h-2v-1h-5v-1h-1v-2h-1v-2h-1v-2h-1v-1Z"/><path fill="#FFE073" d="M12 44h-1v1h-1v4H9v4h1v-3h1v-1h1v-2h-1v-1h1v-2Z"/><path fill="#E2E2E2" d="M18 8H9v23h1v1h1v1h1v1h3v-1h1v-1h1v-1h1V8Z"/><path fill="#18AE9C" d="M12 18v-1h1v1h-1Zm0 4v-1h1v1h-1Zm0-1v-1h1v1h-1Zm0-1v-1h1v1h-1Zm0-1v-1h1v1h-1Zm0-2v-1h1v1h-1Zm0-1v-1h1v1h-1Zm-1 1v-1h1v1h-1Zm-1 1v-1h1v1h-1Z"/><path fill="#E2E2E2" d="M8 30h1V8H8v22Zm10 0h1V8h-1v22Z"/><path fill="#18AE9C" d="M14 21v-5h1v5h-1Zm1-5v-1h1v1h-1Zm0 6v-1h1v1h-1Zm1-1v-5h1v5h-1Z"/></svg>

<svg width="27" height="60" viewBox="0 0 27 60" fill="none" xmlns="http://www.w3.org/2000/svg">
<path d="M4 2V1H23V2H4Z" fill="black"/>
<path d="M3 3H4V2H3.5H3V3Z" fill="black"/>
<path d="M3 26H4V8H3.5H3V26Z" fill="black"/>
<path d="M4 27H5V8H4.5H4V27Z" fill="black"/>
<path d="M6 29H7V8H6.5H6V29Z" fill="black"/>
<path d="M8 30H9V31H8.5H8V30Z" fill="black"/>
<path d="M18 31H19V8H18.5H18V31Z" fill="black"/>
<path d="M7 30H8V8H7.5H7V30Z" fill="black"/>
<path d="M19 30H20V8H19.5H19V30Z" fill="black"/>
<path d="M18 8H9V31H10V32H11V33H12V34H13H13.5H14H15V33H16V32H17V31H18V8Z" fill="white"/>
<path d="M20 29H21V8H20.5H20V29Z" fill="black"/>
<path d="M5 28H6V8H5.5H5V28Z" fill="black"/>
<path d="M21 28H22V8H21.5H21V28Z" fill="black"/>
<path d="M22 27H23V8H22.5H22V27Z" fill="black"/>
<path d="M23 26H24V8H23.5H23V26Z" fill="black"/>
<path d="M25 8H26V4H25.5H25V8Z" fill="black"/>
<path d="M24 4H25V3H24.5H24V4Z" fill="black"/>
<path d="M23 3H24V2H23.5H23V3Z" fill="black"/>
<path d="M1 8H26V7H13.5H1V8Z" fill="black"/>
<path d="M1 8H2V4H1.5H1V8Z" fill="black"/>
<path d="M2 4H3V3H2.5H2V4Z" fill="black"/>
<path d="M17 32H18V31H17.5H17V32Z" fill="black"/>
<path d="M16 33H17V32H16.5H16V33Z" fill="black"/>
<path d="M15 34H16V33H15.5H15V34Z" fill="black"/>
<path d="M14 35H15V34H14.5H14V35Z" fill="black"/>
<path d="M13 35H14V34H13.5H13V35Z" fill="black"/>
<path d="M4 45H9V44H6.5H4V45Z" fill="black"/>
<path d="M18 45H23V44H20.5H18V45Z" fill="black"/>
<path d="M1 46H4V45H2.5H1V46Z" fill="black"/>
<path d="M23 46H26V45H24.5H23V46Z" fill="black"/>
<path d="M9 44H10V42H9.5H9V44Z" fill="black"/>
<path d="M17 44H18V42H17.5H17V44Z" fill="black"/>
<path d="M10 42H11V40H10.5H10V42Z" fill="black"/>
<path d="M16 42H17V40H16.5H16V42Z" fill="black"/>
<path d="M7 52H8V50H7.5H7V52Z" fill="black"/>
<path d="M19 52H20V50H19.5H19V52Z" fill="black"/>
<path d="M5 58H6V56H5.5H5V58Z" fill="black"/>
<path d="M21 58H22V56H21.5H21V58Z" fill="black"/>
<path d="M6 56H7V52H6.5H6V56Z" fill="black"/>
<path d="M20 56H21V52H20.5H20V56Z" fill="black"/>
<path d="M11 40H12V38H11.5H11V40Z" fill="black"/>
<path d="M15 40H16V38H15.5H15V40Z" fill="black"/>
<path d="M14 38H15V37H14.5H14V38Z" fill="black"/>
<path d="M12 38H13V37H12.5H12V38Z" fill="black"/>
<path d="M1 47H2V46H1.5H1V47Z" fill="black"/>
<path d="M25 47H26V46H25.5H25V47Z" fill="black"/>
<path d="M2 48H3V47H2.5H2V48Z" fill="black"/>
<path d="M24 48H25V47H24.5H24V48Z" fill="black"/>
<path d="M10 56H11V55H10.5H10V56Z" fill="black"/>
<path d="M16 56H17V55H16.5H16V56Z" fill="black"/>
<path d="M9 57H10V56H9.5H9V57Z" fill="black"/>
<path d="M17 57H18V56H17.5H17V57Z" fill="black"/>
<path d="M13 54H14V53H13.5H13V54Z" fill="black"/>
<path d="M6 59H7V58H6.5H6V59Z" fill="black"/>
<path d="M20 59H21V58H20.5H20V59Z" fill="black"/>
<path d="M3 49H5V48H4H3V49Z" fill="black"/>
<path d="M22 49H24V48H23H22V49Z" fill="black"/>
<path d="M11 55H13V54H12H11V55Z" fill="black"/>
<path d="M14 55H16V54H15H14V55Z" fill="black"/>
<path d="M7 58H9V57H8H7V58Z" fill="black"/>
<path d="M18 58H20V57H19H18V58Z" fill="black"/>
<path d="M5 50H7V49H6H5V50Z" fill="black"/>
<path d="M20 50H22V49H21H20V50Z" fill="black"/>
<path d="M13 37H14V36H13.5H13V37Z" fill="black"/>
<path d="M13 36H14V35H13.5H13V36Z" fill="black"/>
<path d="M12 35H13V34H12.5H12V35Z" fill="black"/>
<path d="M11 34H12V33H11.5H11V34Z" fill="black"/>
<path d="M10 33H11V32H10.5H10V33Z" fill="black"/>
<path d="M9 32H10V31H9.5H9V32Z" fill="black"/>
<path d="M23 2H4V3H3V4H2V7H25V4H24V3H23V2Z" fill="#929292"/>
<path d="M4 4H6V5H4V4Z" fill="#D9D9D9"/>
<path d="M8 3V2H10V3H8Z" fill="#D0CFCF"/>
<path d="M7 4V3H6V3.5V4H7Z" fill="#D9D9D9"/>
<path d="M4 6V5H3V5.5V6H4Z" fill="#D9D9D9"/>
<path d="M14 37H13V38H12V40H11V42H10V44H9V45H4V46H2V47H3V48H5V49H7V50H8V52H7V56H6V58H7V57H9V56H10V55H11V54H13V53H14V54H16V55H17V56H18V57H20V58H21V56H20V52H19V50H20V49H22V48H24V47H25V46H23V45H18V44H17V42H16V40H15V38H14V37Z" fill="#FEBB38"/>
<path d="M12 44H11V45H10V49H9V53H10V51V50H11V49H12V47H11V46H12V44Z" fill="#FFE073"/>
<path d="M18 8H9V31H10V32H11V33H12V34H15V33H16V32.5V32H17V31H18V8Z" fill="#E2E2E2"/>
<path d="M12 18V17H13V18H12Z" fill="#18AE9C"/>
<path d="M12 22V21H13V22H12Z" fill="#18AE9C"/>
<path d="M12 21V20H13V21H12Z" fill="#18AE9C"/>
<path d="M12 20V19H13V20H12Z" fill="#18AE9C"/>
<path d="M12 19V18H13V19H12Z" fill="#18AE9C"/>
<path d="M12 17V16H13V17H12Z" fill="#18AE9C"/>
<path d="M12 16V15H13V16H12Z" fill="#18AE9C"/>
<path d="M11 17V16H12V17H11Z" fill="#18AE9C"/>
<path d="M10 18V17H11V18H10Z" fill="#18AE9C"/>
<path d="M8 30H9V8H8V30Z" fill="#E2E2E2"/>
<path d="M18 30H19V8H18V30Z" fill="#E2E2E2"/>
<path d="M14 21V16H15V21H14Z" fill="#18AE9C"/>
<path d="M15 16V15H16V16H15Z" fill="#18AE9C"/>
<path d="M15 22V21H16V22H15Z" fill="#18AE9C"/>
<path d="M16 21V16H17V21H16Z" fill="#18AE9C"/>
<path d="M4 2V1H23V2H4Z" fill="black"/>
<path d="M3 3H4V2H3.5H3V3Z" fill="black"/>
<path d="M3 26H4V8H3.5H3V26Z" fill="black"/>
<path d="M4 27H5V8H4.5H4V27Z" fill="black"/>
<path d="M6 29H7V8H6.5H6V29Z" fill="black"/>
<path d="M8 30H9V31H8.5H8V30Z" fill="black"/>
<path d="M18 31H19V8H18.5H18V31Z" fill="black"/>
<path d="M7 30H8V8H7.5H7V30Z" fill="black"/>
<path d="M19 30H20V8H19.5H19V30Z" fill="black"/>
<path d="M18 8H9V31H10V32H11V33H12V34H13H13.5H14H15V33H16V32H17V31H18V8Z" fill="white"/>
<path d="M20 29H21V8H20.5H20V29Z" fill="black"/>
<path d="M5 28H6V8H5.5H5V28Z" fill="black"/>
<path d="M21 28H22V8H21.5H21V28Z" fill="black"/>
<path d="M22 27H23V8H22.5H22V27Z" fill="black"/>
<path d="M23 26H24V8H23.5H23V26Z" fill="black"/>
<path d="M25 8H26V4H25.5H25V8Z" fill="black"/>
<path d="M24 4H25V3H24.5H24V4Z" fill="black"/>
<path d="M23 3H24V2H23.5H23V3Z" fill="black"/>
<path d="M1 8H26V7H13.5H1V8Z" fill="black"/>
<path d="M1 8H2V4H1.5H1V8Z" fill="black"/>
<path d="M2 4H3V3H2.5H2V4Z" fill="black"/>
<path d="M17 32H18V31H17.5H17V32Z" fill="black"/>
<path d="M16 33H17V32H16.5H16V33Z" fill="black"/>
<path d="M15 34H16V33H15.5H15V34Z" fill="black"/>
<path d="M14 35H15V34H14.5H14V35Z" fill="black"/>
<path d="M13 35H14V34H13.5H13V35Z" fill="black"/>
<path d="M4 45H9V44H6.5H4V45Z" fill="black"/>
<path d="M18 45H23V44H20.5H18V45Z" fill="black"/>
<path d="M1 46H4V45H2.5H1V46Z" fill="black"/>
<path d="M23 46H26V45H24.5H23V46Z" fill="black"/>
<path d="M9 44H10V42H9.5H9V44Z" fill="black"/>
<path d="M17 44H18V42H17.5H17V44Z" fill="black"/>
<path d="M10 42H11V40H10.5H10V42Z" fill="black"/>
<path d="M16 42H17V40H16.5H16V42Z" fill="black"/>
<path d="M7 52H8V50H7.5H7V52Z" fill="black"/>
<path d="M19 52H20V50H19.5H19V52Z" fill="black"/>
<path d="M5 58H6V56H5.5H5V58Z" fill="black"/>
<path d="M21 58H22V56H21.5H21V58Z" fill="black"/>
<path d="M6 56H7V52H6.5H6V56Z" fill="black"/>
<path d="M20 56H21V52H20.5H20V56Z" fill="black"/>
<path d="M11 40H12V38H11.5H11V40Z" fill="black"/>
<path d="M15 40H16V38H15.5H15V40Z" fill="black"/>
<path d="M14 38H15V37H14.5H14V38Z" fill="black"/>
<path d="M12 38H13V37H12.5H12V38Z" fill="black"/>
<path d="M1 47H2V46H1.5H1V47Z" fill="black"/>
<path d="M25 47H26V46H25.5H25V47Z" fill="black"/>
<path d="M2 48H3V47H2.5H2V48Z" fill="black"/>
<path d="M24 48H25V47H24.5H24V48Z" fill="black"/>
<path d="M10 56H11V55H10.5H10V56Z" fill="black"/>
<path d="M16 56H17V55H16.5H16V56Z" fill="black"/>
<path d="M9 57H10V56H9.5H9V57Z" fill="black"/>
<path d="M17 57H18V56H17.5H17V57Z" fill="black"/>
<path d="M13 54H14V53H13.5H13V54Z" fill="black"/>
<path d="M6 59H7V58H6.5H6V59Z" fill="black"/>
<path d="M20 59H21V58H20.5H20V59Z" fill="black"/>
<path d="M3 49H5V48H4H3V49Z" fill="black"/>
<path d="M22 49H24V48H23H22V49Z" fill="black"/>
<path d="M11 55H13V54H12H11V55Z" fill="black"/>
<path d="M14 55H16V54H15H14V55Z" fill="black"/>
<path d="M7 58H9V57H8H7V58Z" fill="black"/>
<path d="M18 58H20V57H19H18V58Z" fill="black"/>
<path d="M5 50H7V49H6H5V50Z" fill="black"/>
<path d="M20 50H22V49H21H20V50Z" fill="black"/>
<path d="M13 37H14V36H13.5H13V37Z" fill="black"/>
<path d="M13 36H14V35H13.5H13V36Z" fill="black"/>
<path d="M12 35H13V34H12.5H12V35Z" fill="black"/>
<path d="M11 34H12V33H11.5H11V34Z" fill="black"/>
<path d="M10 33H11V32H10.5H10V33Z" fill="black"/>
<path d="M9 32H10V31H9.5H9V32Z" fill="black"/>
<path d="M23 2H4V3H3V4H2V7H25V4H24V3H23V2Z" fill="#929292"/>
<path d="M4 4H6V5H4V4Z" fill="#D9D9D9"/>
<path d="M8 3V2H10V3H8Z" fill="#D0CFCF"/>
<path d="M7 4V3H6V3.5V4H7Z" fill="#D9D9D9"/>
<path d="M4 6V5H3V5.5V6H4Z" fill="#D9D9D9"/>
<path d="M14 37H13V38H12V40H11V42H10V44H9V45H4V46H2V47H3V48H5V49H7V50H8V52H7V56H6V58H7V57H9V56H10V55H11V54H13V53H14V54H16V55H17V56H18V57H20V58H21V56H20V52H19V50H20V49H22V48H24V47H25V46H23V45H18V44H17V42H16V40H15V38H14V37Z" fill="#FEBB38"/>
<path d="M12 44H11V45H10V49H9V53H10V51V50H11V49H12V47H11V46H12V44Z" fill="#FFE073"/>
<path d="M18 8H9V31H10V32H11V33H12V34H15V33H16V32.5V32H17V31H18V8Z" fill="#E2E2E2"/>
<path d="M12 18V17H13V18H12Z" fill="#18AE9C"/>
<path d="M12 22V21H13V22H12Z" fill="#18AE9C"/>
<path d="M12 21V20H13V21H12Z" fill="#18AE9C"/>
<path d="M12 20V19H13V20H12Z" fill="#18AE9C"/>
<path d="M12 19V18H13V19H12Z" fill="#18AE9C"/>
<path d="M12 17V16H13V17H12Z" fill="#18AE9C"/>
<path d="M12 16V15H13V16H12Z" fill="#18AE9C"/>
<path d="M11 17V16H12V17H11Z" fill="#18AE9C"/>
<path d="M10 18V17H11V18H10Z" fill="#18AE9C"/>
<path d="M8 30H9V8H8V30Z" fill="#E2E2E2"/>
<path d="M18 30H19V8H18V30Z" fill="#E2E2E2"/>
<path d="M14 21V16H15V21H14Z" fill="#18AE9C"/>
<path d="M15 16V15H16V16H15Z" fill="#18AE9C"/>
<path d="M15 22V21H16V22H15Z" fill="#18AE9C"/>
<path d="M16 21V16H17V21H16Z" fill="#18AE9C"/>
</svg>
